assets/bin.svg

<svg xmlns="http://www.w3.org/2000/svg" fill="none" viewBox="0 0 20 28">
  <path fill="#2A2238" fill-rule="evenodd" d="M10.7273 1.5H8.78788c-.23975 0-.44009.16874-.48873.39394H11.216c-.0486-.2252-.249-.39394-.4887-.39394Zm1.9972.39394C12.6694.838676 11.7963 0 10.7273 0H8.78788c-1.06899 0-1.9421.838677-1.99724 1.89394-.00183.03512-.00276.07048-.00276.10606v.54545H3c-1.65685 0-3 1.34315-3 3v2.09091h1.69697V25c0 1.6569 1.34315 3 3 3H14.8182c1.6568 0 3-1.3431 3-3V7.63636h1.697V5.54545c0-1.65685-1.3432-3-3-3h-3.7879V2c0-.03558-.001-.07094-.0028-.10606ZM3 4.04545h13.5152c.8284 0 1.5.67158 1.5 1.5v.59091H1.5v-.59091c0-.82842.67157-1.5 1.5-1.5Zm.19697 4.24243H16.3182V25c0 .8284-.6716 1.5-1.5 1.5H4.69697c-.82843 0-1.5-.6716-1.5-1.5V8.28788Zm1.89394 1.89392v13.5758h1.5V10.1818h-1.5Zm4.24242 13.5758V10.1818h1.49997v13.5758H9.33333Zm4.24247-13.5758v13.5758h1.5V10.1818h-1.5Z" clip-rule="evenodd"/>
</svg>

<svg width="20" height="28" viewBox="0 0 20 28" fill="none" xmlns="http://www.w3.org/2000/svg">
<path fill-rule="evenodd" clip-rule="evenodd" d="M10.7273 1.5H8.78788C8.54813 1.5 8.34779 1.66874 8.29915 1.89394H11.216C11.1674 1.66874 10.967 1.5 10.7273 1.5ZM12.7245 1.89394C12.6694 0.838676 11.7963 0 10.7273 0H8.78788C7.71889 0 6.84578 0.838677 6.79064 1.89394C6.78881 1.92906 6.78788 1.96442 6.78788 2V2.54545H3C1.34315 2.54545 0 3.8886 0 5.54545V6.13636V7.63636H1.5H1.69697V8.28788V25C1.69697 26.6569 3.04012 28 4.69697 28H14.8182C16.475 28 17.8182 26.6569 17.8182 25V8.28788V7.63636H18.0152H19.5152V6.13636V5.54545C19.5152 3.8886 18.172 2.54545 16.5152 2.54545H12.7273V2C12.7273 1.96442 12.7263 1.92906 12.7245 1.89394ZM3 4.04545H16.5152C17.3436 4.04545 18.0152 4.71703 18.0152 5.54545V6.13636H1.5V5.54545C1.5 4.71703 2.17157 4.04545 3 4.04545ZM3.19697 8.28788H16.3182V25C16.3182 25.8284 15.6466 26.5 14.8182 26.5H4.69697C3.86854 26.5 3.19697 25.8284 3.19697 25V8.28788ZM5.09091 10.1818V23.7576H6.59091V10.1818H5.09091ZM9.33333 23.7576V10.1818H10.8333V23.7576H9.33333ZM13.5758 10.1818V23.7576H15.0758V10.1818H13.5758Z" fill="#2A2238"/>
</svg>
